X: 1
T:Whoopin' Blues
M: 4/4
L: 1/8
R: Uptempo
Q:164
F:https://youtu.be/XMA5CKmMuNU
K: F
P:A
cd2 ||: "F" f2 _ed cF z A | ccBc _A2 FF-|F8-|"F7" F4 z2 z A |
"Bb7" c2 Bc _AF z2 | ccBc _A2 FF-|"F" F8-|F4 z2 z A |
"C7" BABA Bc-c2 | ccBc_A2 FF-|"F" F8-|F4 z cd2 :||
P:B
"F7" _e8-|c2  "_Hey!" z2 z4 | _e8-|c2 "_Hey!" z2 z2 z A |
"Bb7" c2 Bc _AF z2| ccBc _A2 FF-|"F" F8- | F4 z2 z A |
"C7" BABA Bc-c2 | ccBc _A2 FF-|"F" F8-|F6 z2 |] 
